X: 3
T: Coleman's Fling
M: 4/4
L: 1/8
R: strathspey
K: Dmaj
dcdB AFDF | B2 BA B2 Bc | dcdB AFDF | EDEF D2 FA |
dcdB AFDF | B2 BA B2 Bc | dcdB AFDF | EDEF D3 e ||
fdad fdad | cAeA cAeg | fdad f2 fg | abag fdde |
fdad fdad | cAeA cAeA | (3Bcd (3cde (3fed (3efg | abag fd d2 |]
